build/images/g14.svg

<svg width="138" height="138" viewBox="0 0 138 138" fill="none" xmlns="http://www.w3.org/2000/svg">
<circle cx="69" cy="69" r="69" fill="#76BD5E"/>
<path d="M68 35.5C48.9761 35.5 33.5 50.9761 33.5 70C33.5 89.0239 48.9761 104.5 68 104.5C87.0239 104.5 102.5 89.0239 102.5 70C102.5 50.9761 87.0239 35.5 68 35.5ZM68 41.25C83.9131 41.25 96.75 54.0869 96.75 70C96.75 85.9131 83.9131 98.75 68 98.75C52.0869 98.75 39.25 85.9131 39.25 70C39.25 54.0869 52.0869 41.25 68 41.25ZM83.9016 50.0561L78.4219 55.4439L82.5561 59.5781L87.9468 54.0984L83.9016 50.0561ZM68 55.625C60.0938 55.625 53.625 62.0938 53.625 70C53.625 77.9062 60.0938 84.375 68 84.375C75.9062 84.375 82.375 77.9062 82.375 70C82.375 62.0938 75.9062 55.625 68 55.625ZM68 61.375C72.7955 61.375 76.625 65.2045 76.625 70C76.625 74.7955 72.7955 78.625 68 78.625C63.2045 78.625 59.375 74.7955 59.375 70C59.375 65.2045 63.2045 61.375 68 61.375ZM68 67.125C66.4188 67.125 65.125 68.4188 65.125 70C65.125 71.5812 66.4188 72.875 68 72.875C69.5812 72.875 70.875 71.5812 70.875 70C70.875 68.4188 69.5812 67.125 68 67.125ZM53.4439 80.4219L48.0561 85.9016L52.0984 89.9468L57.5781 84.5561L53.4439 80.4219Z" fill="white"/>
</svg>

<svg width="138" height="138" fill="none" xmlns="http://www.w3.org/2000/svg"><circle cx="69" cy="69" r="69" fill="#76BD5E"/><path d="M68 35.5c-19.024 0-34.5 15.476-34.5 34.5s15.476 34.5 34.5 34.5 34.5-15.476 34.5-34.5S87.024 35.5 68 35.5zm0 5.75c15.913 0 28.75 12.837 28.75 28.75S83.913 98.75 68 98.75 39.25 85.913 39.25 70 52.087 41.25 68 41.25zm15.902 8.806l-5.48 5.388 4.134 4.134 5.39-5.48-4.044-4.042zM68 55.625c-7.906 0-14.375 6.469-14.375 14.375S60.094 84.375 68 84.375 82.375 77.906 82.375 70 75.906 55.625 68 55.625zm0 5.75A8.584 8.584 0 0176.625 70 8.584 8.584 0 0168 78.625 8.584 8.584 0 0159.375 70 8.584 8.584 0 0168 61.375zm0 5.75A2.884 2.884 0 0065.125 70 2.884 2.884 0 0068 72.875 2.884 2.884 0 0070.875 70 2.884 2.884 0 0068 67.125zM53.444 80.422l-5.388 5.48 4.042 4.045 5.48-5.39-4.134-4.135z" fill="#fff"/></svg>
